svg/solid/bxs-user-x.svg

<svg xmlns="http://www.w3.org/2000/svg" width="24" height="24"><path d="M8 12.052c1.995 0 3.5-1.505 3.5-3.5s-1.505-3.5-3.5-3.5-3.5 1.505-3.5 3.5 1.505 3.5 3.5 3.5zM9 13H7c-2.757 0-5 2.243-5 5v1h12v-1c0-2.757-2.243-5-5-5zm11.293-4.707L18 10.586l-2.293-2.293-1.414 1.414 2.292 2.292-2.293 2.293 1.414 1.414 2.293-2.293 2.294 2.294 1.414-1.414L19.414 12l2.293-2.293z"/></svg>

<svg xmlns="http://www.w3.org/2000/svg" width="24" height="24" viewBox="0 0 24 24"><path d="M8 12.052c1.995 0 3.5-1.505 3.5-3.5s-1.505-3.5-3.5-3.5-3.5 1.505-3.5 3.5S6.005 12.052 8 12.052zM9 13H7c-2.757 0-5 2.243-5 5v1h1 1 8 1 1v-1C14 15.243 11.757 13 9 13zM20.293 8.293L18 10.586 15.707 8.293 14.293 9.707 16.585 11.999 14.292 14.292 15.706 15.706 17.999 13.413 20.293 15.707 21.707 14.293 19.414 12 21.707 9.707z"/></svg>
